X: 2
T: Old Gort Road, The
C: Bannerman
M: 12/8
L: 1/8
R: slide
K: Gmaj
|: D |\ 
GAB D2 B d2 B G2 D | GG/A/B dcB A3 DD/E/F |
G2 B DGB d2 B G3 |[1 GAB d2 B G3- G2 :|[2 GG/A/B dcB A2 G G2 ||
|: e |\
e2 d c2 e d2 B G2 d | G2 B dcB A3 A2 e |
e2 d cde d2 B D2 F |[1 GG/A/B dcB A2 G G2 :|[2 GAB d2 B G3- G2 |]
